public/clients/rewind.svg

<svg xmlns="http://www.w3.org/2000/svg" width="120" height="34" viewBox="0 0 120 34" fill="none">
    <g clip-path="url(#clip0)" class="logotext">
        <path class="logo-letter" d="M32.049 26.3445C32.0092 26.0922 31.9893 25.5488 31.9893 24.7142V15.7477C32.2879 15.2916 32.6512 14.9277 33.0792 14.656C33.5172 14.3745 33.9452 14.2338 34.3632 14.2338C35.4581 14.2338 36.1798 14.5347 36.5282 15.1363L36.5879 15.0926L36.8566 11.177C36.3191 10.9539 35.5826 10.8423 34.6469 10.8423C33.7212 10.8423 32.8353 11.3129 31.9893 12.2542C31.9893 12.2542 31.9893 12.438 31.9893 11.7857C31.9893 11.1334 31.2 11.1334 31.2 11.1334H27.3778C27.3778 11.3524 28.3313 11.1334 28.3313 13.6056C28.3313 16.0777 28.3313 26.3445 28.3313 26.3445H32.049Z" fill="#442b75"></path>
        <path class="logo-letter" fill-rule="evenodd" clip-rule="evenodd" d="M38.5289 15.704C38.1307 16.6744 37.9316 17.7273 37.9316 18.8627C37.9316 21.114 38.7628 22.9627 40.425 24.4086C42.0773 25.8448 44.1676 26.5629 46.6959 26.5629C47.1537 26.5629 47.6315 26.5338 48.1292 26.4755C49.8213 26.2814 51.0456 25.9321 51.8021 25.4275L51.9664 23.1567C51.9962 22.7298 52.0211 22.3125 52.041 21.9049C51.8917 22.0311 51.6677 22.1669 51.3691 22.3125C50.2344 22.8656 48.8757 23.1422 47.2931 23.1422C45.7801 23.1422 44.5508 22.8559 43.6052 22.2834C42.6596 21.7011 42.0574 20.8908 41.7986 19.8525H47.0542C50.11 19.8525 52.1356 19.7166 53.1309 19.4449C53.2504 19.1635 53.3101 18.6395 53.3101 17.8729C53.3101 15.8738 52.678 14.2144 51.4139 12.8947C50.1299 11.5264 48.4278 10.8423 46.3077 10.8423C43.7993 10.8423 41.7688 11.6137 40.216 13.1567C39.4894 13.8845 38.927 14.7336 38.5289 15.704ZM45.8448 13.899C47.7659 13.899 48.9305 14.9422 49.3386 17.0286C49.0798 17.048 48.7861 17.0626 48.4577 17.0723L47.2334 17.1159C46.7456 17.1256 46.248 17.1305 45.7403 17.1305H44.8893C44.5508 17.1305 44.1975 17.1256 43.8292 17.1159H42.7243C42.376 17.1062 42.0823 17.0965 41.8434 17.0868C41.9728 16.621 42.157 16.1941 42.3959 15.8059C43.1822 14.5347 44.3319 13.899 45.8448 13.899Z" fill="#442b75"></path>
        <path class="logo-letter" d="M54.4747 11.1334H58.491L61.2681 22.065L64.2542 11.1334H67.6882L70.7789 22.2979L73.5559 11.1334H77.1691L72.5705 26.3445H68.7035L65.7473 16.3736L63 26.3445H59.1629L54.4747 11.1334Z" fill="#442b75"></path>
        <g class="logo-letter">
            <path d="M83.007 26.3445C82.9672 26.0922 82.9473 25.5488 82.9473 24.7142V11.1334H79.2146V26.3445H83.007Z" fill="#442b75"></path>
            <path d="M81.1556 8.83927C82.5302 8.83927 83.6445 7.7529 83.6445 6.4128C83.6445 5.0727 82.5302 3.98633 81.1556 3.98633C79.781 3.98633 78.6667 5.0727 78.6667 6.4128C78.6667 7.7529 79.781 8.83927 81.1556 8.83927Z" fill="#442b75"></path>
        </g>
        <path class="logo-letter" d="M91.0994 24.4813C91.0994 25.3353 91.1392 25.9564 91.2188 26.3445H87.4712V11.1334H91.0994V12.4289C92.4132 11.3711 93.8167 10.8423 95.3098 10.8423C96.9422 10.8423 98.2461 11.3857 99.2216 12.4725C100.197 13.5497 100.685 14.9713 100.685 16.7375V22.5308C100.685 24.1708 100.71 25.1558 100.759 25.4857C100.809 25.8157 100.874 26.0291 100.954 26.1262C101.043 26.2232 101.118 26.3106 101.177 26.3882L101.148 26.4464C100.341 26.3785 99.7541 26.3445 99.3858 26.3445H98.3407C98.0222 26.3445 97.5941 26.3591 97.0566 26.3882V18.4551C97.0566 15.6118 96.1708 14.1902 94.399 14.1902C93.0851 14.1902 91.9852 14.85 91.0994 16.1698V24.4813Z" fill="#442b75"></path>
        <path class="logo-letter" fill-rule="evenodd" clip-rule="evenodd" d="M111.972 26.5629C113.236 26.5629 114.501 26.2184 115.765 25.5294C116.083 25.9467 116.501 26.2912 117.019 26.5629L119.826 24.1465C119.587 23.9816 119.388 23.8069 119.229 23.6225C119.079 23.4382 118.94 23.147 118.81 22.7492C118.691 22.3513 118.631 21.507 118.631 20.2164V4.65591H114.973V11.1334C114.237 10.9393 113.485 10.8423 112.719 10.8423C110.22 10.8423 108.17 11.6186 106.567 13.1712C104.975 14.7045 104.179 16.6259 104.179 18.9355C104.179 21.1674 104.865 22.9821 106.239 24.3794C106.906 25.0587 107.712 25.5925 108.658 25.9806C109.603 26.3688 110.708 26.5629 111.972 26.5629ZM114.973 22.7492C114.277 23.0597 113.51 23.215 112.674 23.215C111.071 23.215 109.842 22.7734 108.986 21.8904C108.19 21.0655 107.792 19.9592 107.792 18.5716C107.792 17.3003 108.23 16.2668 109.106 15.4711C109.524 15.0926 110.021 14.7967 110.599 14.5832C111.186 14.3697 111.888 14.2629 112.704 14.2629C113.52 14.2629 114.277 14.4037 114.973 14.6851V22.7492Z" fill="#442b75"></path>
    </g>
    <g clip-path="url(#clip1)" class="boomerang">
        <path d="M17.1867 28.8514C17.1867 28.8514 10.8732 21.7116 9.09755 17.3275C7.69456 13.8829 6.92729 10.146 6.88345 6.26294C-2.54293 15.4069 -2.30179 17.0979 7.76032 26.7011C18.7651 37.1603 21.5491 32.985 17.1867 28.8514Z" fill="#442b75"></path>
        <path d="M19.1597 1.41905C19.1597 -0.564224 14.8411 -0.668607 11.1363 2.25412C10.4348 2.79691 8.68105 4.50879 8.68105 4.50879C8.65913 4.96808 8.63721 5.44824 8.63721 5.90752C8.63721 8.97639 9.11949 11.9409 10.0402 14.7383C11.6624 10.8553 14.0738 7.36889 17.099 4.44616C18.6336 2.9848 19.1597 2.46288 19.1597 1.41905Z" fill="#442b75"></path>
    </g>
    <defs>
        <clipPath id="clip0">
            <rect width="120" height="33.2773" fill="white"></rect>
        </clipPath>
        <clipPath id="clip1">
            <rect width="19.1597" height="33.2773" fill="white"></rect>
        </clipPath>
    </defs>
</svg>

<svg xmlns="http://www.w3.org/2000/svg" fill="none" viewBox="0 0 120 34"><g fill="#442b75" class="logotext" clip-path="url(#a)"><path d="M32.049 26.345c-.04-.253-.06-.796-.06-1.63v-8.967c.299-.456.662-.82 1.09-1.092.438-.282.866-.422 1.284-.422 1.095 0 1.817.3 2.165.902l.06-.043.269-3.916c-.538-.223-1.274-.335-2.21-.335-.926 0-1.812.47-2.658 1.412v-.468c0-.653-.789-.653-.789-.653h-3.822c0 .22.953 0 .953 2.473v12.739h3.718Z" class="logo-letter"/><path fill-rule="evenodd" d="M38.529 15.704c-.398.97-.597 2.023-.597 3.159 0 2.251.83 4.1 2.493 5.546 1.652 1.436 3.743 2.154 6.27 2.154.459 0 .937-.03 1.434-.087 1.692-.195 2.917-.544 3.673-1.049l.164-2.27c.03-.427.055-.845.075-1.252-.15.126-.373.262-.672.407-1.135.554-2.493.83-4.076.83-1.513 0-2.742-.286-3.688-.859-.945-.582-1.548-1.392-1.806-2.43h5.255c3.056 0 5.082-.136 6.077-.408.12-.282.18-.805.18-1.572 0-2-.633-3.659-1.897-4.978-1.284-1.369-2.986-2.053-5.106-2.053-2.509 0-4.54.772-6.092 2.315a7.706 7.706 0 0 0-1.687 2.547Zm7.316-1.805c1.92 0 3.086 1.043 3.494 3.13-.26.019-.553.034-.881.043l-1.225.044c-.487.01-.985.015-1.493.015h-.85c-.34 0-.693-.005-1.06-.015h-1.106a71.07 71.07 0 0 1-.88-.03c.129-.465.313-.892.552-1.28.786-1.271 1.936-1.907 3.449-1.907Z" class="logo-letter" clip-rule="evenodd"/><path d="M54.475 11.133h4.016l2.777 10.932 2.986-10.932h3.434l3.09 11.165 2.778-11.165h3.613L72.57 26.345h-3.866l-2.957-9.971L63 26.344h-3.837l-4.688-15.21Z" class="logo-letter"/><g class="logo-letter"><path d="M83.007 26.345c-.04-.253-.06-.796-.06-1.63V11.132h-3.732v15.212h3.792ZM81.156 8.84c1.374 0 2.488-1.087 2.488-2.427s-1.114-2.427-2.488-2.427c-1.375 0-2.49 1.087-2.49 2.427s1.115 2.426 2.49 2.426Z"/></g><path d="M91.1 24.481c0 .854.04 1.475.119 1.863H87.47v-15.21H91.1v1.295c1.314-1.058 2.718-1.587 4.21-1.587 1.633 0 2.937.544 3.913 1.63.975 1.078 1.463 2.5 1.463 4.266v5.793c0 1.64.025 2.625.074 2.955.05.33.115.543.195.64.089.097.164.185.223.262l-.029.058a23.606 23.606 0 0 0-1.762-.102H98.34c-.319 0-.747.015-1.284.044v-7.933c0-2.843-.886-4.265-2.658-4.265-1.314 0-2.414.66-3.3 1.98v8.311Z" class="logo-letter"/><path fill-rule="evenodd" d="M111.972 26.563c1.264 0 2.529-.345 3.793-1.034.318.418.736.762 1.254 1.034l2.807-2.416a3.126 3.126 0 0 1-.597-.524c-.15-.185-.289-.476-.419-.874-.119-.398-.179-1.242-.179-2.533V4.656h-3.658v6.477a8.806 8.806 0 0 0-2.254-.29c-2.499 0-4.549.776-6.152 2.328-1.592 1.534-2.388 3.455-2.388 5.765 0 2.231.686 4.046 2.06 5.443a7.141 7.141 0 0 0 2.419 1.602c.945.388 2.05.582 3.314.582Zm3.001-3.814c-.696.31-1.463.466-2.299.466-1.603 0-2.832-.442-3.688-1.325-.796-.825-1.194-1.93-1.194-3.318 0-1.272.438-2.305 1.314-3.1a4.538 4.538 0 0 1 1.493-.889c.587-.213 1.289-.32 2.105-.32a6 6 0 0 1 2.269.422v8.064Z" class="logo-letter" clip-rule="evenodd"/></g><g fill="#442b75" class="boomerang" clip-path="url(#b)"><path d="M17.187 28.851s-6.314-7.14-8.09-11.523A30.178 30.178 0 0 1 6.884 6.263c-9.426 9.144-9.185 10.835.877 20.438 11.005 10.46 13.79 6.284 9.427 2.15Z"/><path d="M19.16 1.419c0-1.983-4.319-2.088-8.024.835-.701.543-2.455 2.255-2.455 2.255a29.8 29.8 0 0 0-.044 1.399c0 3.068.482 6.033 1.403 8.83A30.856 30.856 0 0 1 17.1 4.446c1.535-1.461 2.06-1.983 2.06-3.027Z"/></g><defs><clipPath id="a"><path fill="#fff" d="M0 0h120v33.277H0z"/></clipPath><clipPath id="b"><path fill="#fff" d="M0 0h19.16v33.277H0z"/></clipPath></defs></svg>
